X:81
T:All Take Tea
S:American Veteran Fifer #81
C:J.L. Blatchley, Co.E.2nd N.Y.H. Artillery
M:6/8
L:1/8
Q:1/8=300
K:D 
%%MIDI program 72
%%MIDI transpose 8
%%MIDI ratio 3 1
A | d2d def | edc d2e | f2f fga | gfe f2g |
a2a agf | g2g gfe | fed afd | edc d2 :|
|: d/f/ | a2a aba | g2g gef | g2g gag | fde f2A |
d2d def | e2e efg | a2f gfe | d2f d2 :|



